X:1
T:A Mighty Fortress is Our Brain
M:4/4
L:1/4
K:G
 G| G3/2 F/2 E D| G A B B| c B d B| A- G E| G| G3/2 F/2 E D| G A B B|\
 c B d B| A- F G| B| B3/2 c/2 B A| G F E D| E E E F| G- B, B,| B| B3/2 A/2 G B|\
 d c BG/2-F/2| E F G c| B- A G||
